picto/loading-ramp-for-lorries-right.svg

<svg class="color-immutable" width="24" height="24" viewBox="0 0 24 24" fill="none" xmlns="http://www.w3.org/2000/svg"><g clip-path="url(#a)"><path d="M0 22.5v-21C0 .675.675 0 1.5 0h21c.825 0 1.5.675 1.5 1.5v21c0 .825-.675 1.5-1.5 1.5h-21C.675 24 0 23.325 0 22.5Z" fill="#2D327D"/><path d="M15.075 11.175a2.325 2.325 0 1 0 0 4.65 2.325 2.325 0 0 0 0-4.65Zm0 3.525a1.2 1.2 0 1 1 0-2.4 1.2 1.2 0 0 1 0 2.4ZM11.626 12.6H3.001v1.5h8.625v-1.5Z" fill="#fff"/><path d="m20.954 7.825-.676-2.475a1.35 1.35 0 0 0-1.304-1h-6.223l-.003 6.917a3.225 3.225 0 0 1 5.552 2.222V13.725c0 .207.168.375.375.375h1.95a.375.375 0 0 0 .375-.375l.001-.225V8.175c0-.118-.016-.236-.047-.35Zm-1.904-2.8c.271 0 .506.182.577.445l.536 2.008a.375.375 0 0 1-.362.472h-4.8a.375.375 0 0 1-.375-.375V5.4c0-.207.168-.375.375-.375h4.049ZM3 16.2h18v1.125H3V16.2ZM3 20.325h18V21H3v-.675ZM19.502 18.787a1.087 1.087 0 1 0-2.174.002 1.087 1.087 0 0 0 2.174-.002ZM16.578 18.787a1.087 1.087 0 1 0-2.175.003 1.087 1.087 0 0 0 2.175-.003ZM9.602 18.787a1.087 1.087 0 1 0-2.174.002 1.087 1.087 0 0 0 2.174-.002ZM6.678 18.787a1.087 1.087 0 1 0-2.175.003 1.087 1.087 0 0 0 2.175-.003ZM3 11.846l8.625.004V3.375A.375.375 0 0 0 11.25 3H3v2.025h5.7a.375.375 0 0 1 0 .75H3v.75h5.7a.375.375 0 0 1 0 .75H3v4.571Z" fill="#fff"/></g><defs><clipPath id="a"><path fill="#fff" d="M0 0h24v24H0z"/></clipPath></defs></svg>

<svg class="color-immutable" width="24" height="24" viewBox="0 0 24 24" fill="none" xmlns="http://www.w3.org/2000/svg"><path d="M0 22.5V1.5C0 0.675 0.675 0 1.5 0H22.5C23.325 0 24 0.675 24 1.5V22.5C24 23.325 23.325 24 22.5 24H1.5C0.675 24 0 23.325 0 22.5Z" fill="#2D327D"/><path d="M15.075 11.175C13.791 11.175 12.75 12.216 12.75 13.5C12.75 14.071 12.956 14.595 13.299 15C13.725 15.505 14.362 15.825 15.075 15.825C15.788 15.825 16.425 15.505 16.851 15C17.194 14.595 17.4 14.071 17.4 13.5C17.4 12.216 16.359 11.175 15.075 11.175ZM15.075 14.7C14.412 14.7 13.875 14.163 13.875 13.5C13.875 12.837 14.412 12.3 15.075 12.3C15.738 12.3 16.275 12.837 16.275 13.5C16.275 14.163 15.738 14.7 15.075 14.7Z" fill="white"/><path d="M11.626 12.6H3.00098V14.1H11.626V12.6Z" fill="white"/><path d="M20.954 7.825L20.278 5.35C20.12 4.761 19.585 4.35 18.974 4.35H12.751L12.748 11.267C13.335 10.656 14.16 10.275 15.075 10.275C16.853 10.275 18.294 11.713 18.3 13.489V13.5V13.725C18.3 13.932 18.468 14.1 18.675 14.1H20.625C20.832 14.1 21 13.932 21 13.725L21.001 13.5V8.175C21.001 8.057 20.985 7.939 20.954 7.825ZM19.05 5.025C19.321 5.025 19.556 5.207 19.627 5.47L20.163 7.478C20.171 7.51 20.176 7.542 20.176 7.575C20.176 7.782 20.008 7.95 19.801 7.95H15.001C14.794 7.95 14.626 7.782 14.626 7.575V5.4C14.626 5.193 14.794 5.025 15.001 5.025H19.05Z" fill="white"/><path d="M3 16.2H21V17.325H3V16.2Z" fill="white"/><path d="M3 20.325H21V21H3V20.325Z" fill="white"/><path d="M19.502 18.787C19.502 18.187 19.015 17.701 18.414 17.701C17.814 17.701 17.327 18.188 17.327 18.787C17.327 19.388 17.814 19.875 18.414 19.875C19.015 19.875 19.502 19.388 19.502 18.787Z" fill="white"/><path d="M16.578 18.787C16.578 18.187 16.09 17.701 15.49 17.701C14.89 17.701 14.402 18.188 14.402 18.787C14.402 19.388 14.89 19.875 15.49 19.875C16.09 19.875 16.578 19.388 16.578 18.787Z" fill="white"/><path d="M9.602 18.787C9.602 18.187 9.115 17.701 8.514 17.701C7.914 17.701 7.427 18.188 7.427 18.787C7.427 19.388 7.914 19.875 8.514 19.875C9.115 19.875 9.602 19.388 9.602 18.787Z" fill="white"/><path d="M6.67801 18.787C6.67801 18.187 6.19001 17.701 5.59001 17.701C4.99001 17.701 4.50201 18.188 4.50201 18.787C4.50201 19.388 4.99001 19.875 5.59001 19.875C6.19001 19.875 6.67801 19.388 6.67801 18.787Z" fill="white"/><path d="M3 11.846L11.625 11.85C11.625 11.85 11.625 6 11.625 3.375C11.625 3.168 11.457 3 11.25 3H3V5.025H8.7C8.907 5.025 9.075 5.193 9.075 5.4C9.075 5.607 8.907 5.775 8.7 5.775H3V6.525H8.7C8.907 6.525 9.075 6.693 9.075 6.9C9.075 7.107 8.907 7.275 8.7 7.275H3V11.846Z" fill="white"/></svg>
